public/img/partners/breaktime.svg

<?xml version="1.0" encoding="UTF-8"?>
<svg xmlns="http://www.w3.org/2000/svg" xmlns:xlink="http://www.w3.org/1999/xlink" width="193px" height="54px" viewBox="0 0 193 54">
  <!-- Generator: Sketch 47 (45396) - http://www.bohemiancoding.com/sketch -->
  <title>Artboard</title>
  <desc>Created with Sketch.</desc>
  <defs></defs>
  <g id="How-It-Works-(Alec)" stroke="none" stroke-width="1" fill="none" fill-rule="evenodd">
    <g id="Artboard" fill="#FFFFFF">
      <g id="Brand-/-Images-/-Logo-full" transform="translate(-12.000000, -4.000000)">
        <g id="Brand-/-Images--/-Logo">
          <g id="BTM-Logo" transform="translate(12.000000, 11.000000)">
            <path d="M7.15461972,16.7077059 C9.338,16.7077059 11.1268169,15.0001176 11.1268169,12.2417059 C11.1268169,9.50982353 9.31208451,7.77635294 7.15461972,7.77635294 C4.99780282,7.77635294 3.10402817,9.53635294 3.10402817,12.2417059 C3.10402817,14.9483529 4.99780282,16.7077059 7.15461972,16.7077059 Z M7.89126761,5.01729412 C11.1792958,5.01729412 14.3623662,7.61847059 14.3623662,12.2417059 C14.3623662,16.8655882 11.2052113,19.4667647 7.89126761,19.4667647 C5.60292958,19.4667647 4.15619718,18.3104706 3.18307042,17.0234706 L3.18307042,19.1768824 L0,19.1768824 L0,0 L3.18307042,0 L3.18307042,7.61847059 C4.20867606,6.17294118 5.65540845,5.01729412 7.89126761,5.01729412 Z" id="Fill-1"></path>
            <path d="M20.8058,19.1771412 L17.6227296,19.1771412 L17.6227296,5.30678824 L20.8058,5.30678824 L20.8058,8.43272941 C21.673969,6.35696471 23.2787859,4.93861176 25.7245606,5.04408235 L25.7245606,8.4062 L25.5405606,8.4062 C22.7520535,8.4062 20.8058,10.2192588 20.8058,13.8971412 L20.8058,19.1771412 Z" id="Fill-3"></path>
            <path d="M37.533538,11.2702765 C37.3229746,9.22104118 36.1127211,7.61827647 34.0083831,7.61827647 C32.0621296,7.61827647 30.6937915,9.11557059 30.4048338,11.2702765 L37.533538,11.2702765 Z M34.428862,16.8919235 C35.9812,16.8919235 37.0858479,16.3141 38.1904958,15.2367471 L40.0583549,16.8919235 C38.7431437,18.4681588 36.9284113,19.4924529 34.3763831,19.4924529 C30.3523549,19.4924529 27.2483268,16.5761588 27.2483268,12.2680412 C27.2483268,8.27504118 30.0627493,5.0171 34.0349465,5.0171 C38.453538,5.0171 40.6900451,8.48533529 40.6900451,12.5042176 C40.6900451,12.7934529 40.6634817,13.0561588 40.6375662,13.3719235 L30.4313972,13.3719235 C30.7993972,15.6308059 32.3776507,16.8919235 34.428862,16.8919235 L34.428862,16.8919235 Z" id="Fill-5"></path>
            <path d="M52.4732366,13.2925941 C51.6575465,12.9774765 50.5269831,12.7413 49.2901662,12.7413 C47.2914338,12.7413 46.1077437,13.5553 46.1077437,14.9743 L46.1077437,15.0260647 C46.1077437,16.3395941 47.2914338,17.0759471 48.7906451,17.0759471 C50.8949831,17.0759471 52.4732366,15.8937706 52.4732366,14.1596529 L52.4732366,13.2925941 Z M52.3941944,19.1769471 L52.3941944,17.4700059 C51.447631,18.5991235 50.0008986,19.4668294 47.8965606,19.4668294 C45.266138,19.4668294 42.9512366,17.9688882 42.9512366,15.1839471 L42.9512366,15.1315353 C42.9512366,12.1369471 45.3451803,10.6655353 48.5800817,10.6655353 C50.263293,10.6655353 51.3420254,10.9023588 52.4207577,11.2433588 L52.4207577,10.9023588 C52.4207577,8.98447647 51.2105042,7.93365294 49.0005606,7.93365294 C47.4495183,7.93365294 46.2917437,8.2753 45.0296592,8.80071176 L44.1608423,6.25194706 C45.6872648,5.5693 47.1858282,5.0963 49.4482507,5.0963 C53.551969,5.0963 55.5507014,7.25100588 55.5507014,10.9541235 L55.5507014,19.1769471 L52.3941944,19.1769471 Z" id="Fill-7"></path>
            <polygon id="Fill-9" points="72.3315662 19.1771412 68.6489746 19.1771412 64.466862 13.1879647 62.5206085 15.2106706 62.5206085 19.1771412 59.337538 19.1771412 59.337538 0.000258823529 62.5206085 0.000258823529 62.5206085 11.4538471 68.2809746 5.30678824 72.1475662 5.30678824 66.6243268 10.9543176"></polygon>
            <path d="M78.2226113,14.8426882 C78.2226113,16.0772765 78.8536535,16.5761588 79.931738,16.5761588 C80.6418225,16.5761588 81.2735127,16.4189235 81.9052028,16.1038059 L81.9052028,18.7049824 C81.1160761,19.1514529 80.2213437,19.4141588 79.0376535,19.4141588 C76.6968366,19.4141588 75.0395408,18.3892176 75.0395408,15.3422176 L75.0395408,8.03821765 L73.2772873,8.03821765 L73.2772873,5.30698235 L75.0395408,5.30698235 L75.0395408,1.4971 L78.2226113,1.4971 L78.2226113,5.30698235 L81.9576817,5.30698235 L81.9576817,8.03821765 L78.2226113,8.03821765 L78.2226113,14.8426882 Z" id="Fill-11"></path>
            <polygon id="Fill-13" points="85.3500845 19.1768824 88.5331549 19.1768824 88.5331549 5.30652941 85.3500845 5.30652941"></polygon>
            <path d="M108.94478,5.01735882 C111.969766,5.01735882 113.81171,6.93524118 113.81171,10.3238882 L113.81171,19.1769471 L110.628639,19.1769471 L110.628639,11.2964176 C110.628639,9.0893 109.603034,7.90777059 107.814217,7.90777059 C106.077231,7.90777059 104.84171,9.11582941 104.84171,11.3488294 L104.84171,19.1769471 L101.658639,19.1769471 L101.658639,11.2705353 C101.658639,9.11582941 100.60647,7.90777059 98.8442169,7.90777059 C97.0813155,7.90777059 95.8717099,9.22065294 95.8717099,11.3753588 L95.8717099,19.1769471 L92.6892873,19.1769471 L92.6892873,5.30659412 L95.8717099,5.30659412 L95.8717099,7.40824118 C96.7664423,6.17365294 97.9760479,5.01735882 100.106949,5.01735882 C102.10633,5.01735882 103.499935,5.98924118 104.236583,7.46065294 C105.367794,5.98924118 106.84109,5.01735882 108.94478,5.01735882" id="Fill-15"></path>
            <path d="M127.198876,11.2702765 C126.988313,9.22104118 125.778707,7.61827647 123.674369,7.61827647 C121.728115,7.61827647 120.359777,9.11557059 120.070172,11.2702765 L127.198876,11.2702765 Z M124.094848,16.8919235 C125.646538,16.8919235 126.751834,16.3141 127.85713,15.2367471 L129.723693,16.8919235 C128.408482,18.4681588 126.593101,19.4924529 124.042369,19.4924529 C120.017693,19.4924529 116.914313,16.5761588 116.914313,12.2680412 C116.914313,8.27504118 119.728735,5.0171 123.700932,5.0171 C128.119524,5.0171 130.355383,8.48533529 130.355383,12.5042176 C130.355383,12.7934529 130.329468,13.0561588 130.302904,13.3719235 L120.096735,13.3719235 C120.464735,15.6308059 122.043637,16.8919235 124.094848,16.8919235 L124.094848,16.8919235 Z" id="Fill-16"></path>
            <polygon id="Fill-17" points="89.8867859 32.5928706 89.8867859 26.6069294 87.3030113 30.5235765 87.2498845 30.5235765 84.6920254 26.6464 84.6920254 32.5928706 82.7127296 32.5928706 82.7127296 23.4240471 84.889631 23.4240471 87.3030113 27.3012235 89.7157437 23.4240471 91.893293 23.4240471 91.893293 32.5928706"></polygon>
            <polygon id="Fill-18" points="95.1461408 32.5928706 95.1461408 23.4240471 102.070761 23.4240471 102.070761 25.2189882 97.1526479 25.2189882 97.1526479 27.0786353 101.481183 27.0786353 101.481183 28.8729294 97.1526479 28.8729294 97.1526479 30.7985765 102.137493 30.7985765 102.137493 32.5928706"></polygon>
            <path d="M111.592631,28.0084588 C111.592631,26.3843412 110.477617,25.2448706 108.825504,25.2448706 L107.265392,25.2448706 L107.265392,30.7720471 L108.825504,30.7720471 C110.477617,30.7720471 111.592631,29.6591059 111.592631,28.0343412 L111.592631,28.0084588 Z M108.825504,32.5928706 L105.245279,32.5928706 L105.245279,23.4240471 L108.825504,23.4240471 C111.710546,23.4240471 113.704744,25.4014588 113.704744,27.9825765 L113.704744,28.0084588 C113.704744,30.5889294 111.710546,32.5928706 108.825504,32.5928706 L108.825504,32.5928706 Z" id="Fill-19"></path>
            <polygon id="Fill-20" points="116.380648 32.593 118.400113 32.593 118.400113 23.4241765 116.380648 23.4241765"></polygon>
            <path d="M125.53549,25.7816706 L124.315518,28.7549059 L126.755462,28.7549059 L125.53549,25.7816706 Z M128.316223,32.5926118 L127.476561,30.5362588 L123.593772,30.5362588 L122.755406,32.5926118 L120.69642,32.5926118 L124.631039,23.3584353 L126.493068,23.3584353 L130.428335,32.5926118 L128.316223,32.5926118 Z" id="Fill-21"></path>
            <polygon id="Fill-22" points="132.686935 5.93514706 131.740372 5.93514706 131.740372 5.30491176 134.317668 5.30491176 134.317668 5.93514706 133.371752 5.93514706 133.371752 8.41144118 132.686935 8.41144118"></polygon>
            <polygon id="Fill-23" points="134.842521 5.30517059 135.580465 5.30517059 136.397451 6.6187 137.215085 5.30517059 137.953028 5.30517059 137.953028 8.41105294 137.273394 8.41105294 137.273394 6.38381765 136.397451 7.71028824 136.379958 7.71028824 135.513732 6.39675882 135.513732 8.41105294 134.842521 8.41105294"></polygon>
          </g>
        </g>
        <g id="B-logo" transform="translate(157.000000, 4.000000)">
          <g id="Group-2">
            <path d="M24,54 C10.745166,54 0,43.254834 0,30 C0,16.745166 10.745166,6 24,6 C37.254834,6 48,16.745166 48,30 C48,43.254834 37.254834,54 24,54 Z M24,46 C32.836556,46 40,38.836556 40,30 C40,21.163444 32.836556,14 24,14 C15.163444,14 8,21.163444 8,30 C8,38.836556 15.163444,46 24,46 Z" id="Combined-Shape"></path>
            <rect id="Rectangle-11" x="16" y="22" width="7" height="17" rx="1"></rect>
            <rect id="Rectangle-11" x="0" y="0" width="7" height="32" rx="1"></rect>
            <rect id="Rectangle-11-Copy" x="26" y="22" width="7" height="17" rx="1"></rect>
          </g>
        </g>
      </g>
    </g>
  </g>
</svg>

<?xml version="1.0" encoding="utf-8"?>
<!-- Generator: Adobe Illustrator 27.1.1, SVG Export Plug-In . SVG Version: 6.00 Build 0)  -->
<svg version="1.1" id="Layer_1" xmlns="http://www.w3.org/2000/svg" xmlns:xlink="http://www.w3.org/1999/xlink" x="0px" y="0px"
	 viewBox="0 0 193 54" style="enable-background:new 0 0 193 54;" xml:space="preserve">
<style type="text/css">
	.st0{fill-rule:evenodd;clip-rule:evenodd;}
</style>
<g id="How-It-Works-_x28_Alec_x29_">
	<g id="Artboard">
		<g id="Brand-_x2F_-Images-_x2F_-Logo-full" transform="translate(-12.000000, -4.000000)">
			<g id="Brand-_x2F_-Images--_x2F_-Logo">
				<g id="BTM-Logo" transform="translate(12.000000, 11.000000)">
					<path id="Fill-1" class="st0" d="M7.2,16.7c2.2,0,4-1.7,4-4.5c0-2.7-1.8-4.5-4-4.5c-2.2,0-4.1,1.8-4.1,4.5
						C3.1,14.9,5,16.7,7.2,16.7z M7.9,5c3.3,0,6.5,2.6,6.5,7.2c0,4.6-3.2,7.2-6.5,7.2c-2.3,0-3.7-1.2-4.7-2.4v2.2H0V0h3.2v7.6
						C4.2,6.2,5.7,5,7.9,5z"/>
					<path id="Fill-3" class="st0" d="M20.8,19.2h-3.2V5.3h3.2v3.1c0.9-2.1,2.5-3.5,4.9-3.4v3.4h-0.2c-2.8,0-4.7,1.8-4.7,5.5V19.2z"
						/>
					<path id="Fill-5" class="st0" d="M37.5,11.3c-0.2-2-1.4-3.7-3.5-3.7c-1.9,0-3.3,1.5-3.6,3.7H37.5z M34.4,16.9
						c1.6,0,2.7-0.6,3.8-1.7l1.9,1.7c-1.3,1.6-3.1,2.6-5.7,2.6c-4,0-7.1-2.9-7.1-7.2c0-4,2.8-7.3,6.8-7.3c4.4,0,6.7,3.5,6.7,7.5
						c0,0.3,0,0.6-0.1,0.9H30.4C30.8,15.6,32.4,16.9,34.4,16.9L34.4,16.9z"/>
					<path id="Fill-7" class="st0" d="M52.5,13.3c-0.8-0.3-1.9-0.6-3.2-0.6c-2,0-3.2,0.8-3.2,2.2V15c0,1.3,1.2,2,2.7,2
						c2.1,0,3.7-1.2,3.7-2.9V13.3z M52.4,19.2v-1.7c-0.9,1.1-2.4,2-4.5,2c-2.6,0-4.9-1.5-4.9-4.3v-0.1c0-3,2.4-4.5,5.6-4.5
						c1.7,0,2.8,0.2,3.8,0.6v-0.3c0-1.9-1.2-3-3.4-3c-1.6,0-2.7,0.3-4,0.9l-0.9-2.5c1.5-0.7,3-1.2,5.3-1.2c4.1,0,6.1,2.2,6.1,5.9
						v8.2H52.4z"/>
					<polygon id="Fill-9" class="st0" points="72.3,19.2 68.6,19.2 64.5,13.2 62.5,15.2 62.5,19.2 59.3,19.2 59.3,0 62.5,0 
						62.5,11.5 68.3,5.3 72.1,5.3 66.6,11 					"/>
					<path id="Fill-11" class="st0" d="M78.2,14.8c0,1.2,0.6,1.7,1.7,1.7c0.7,0,1.3-0.2,2-0.5v2.6c-0.8,0.4-1.7,0.7-2.9,0.7
						c-2.3,0-4-1-4-4.1V8h-1.8V5.3H75V1.5h3.2v3.8H82V8h-3.7V14.8z"/>
					<polygon id="Fill-13" class="st0" points="85.4,19.2 88.5,19.2 88.5,5.3 85.4,5.3 					"/>
					<path id="Fill-15" class="st0" d="M108.9,5c3,0,4.9,1.9,4.9,5.3v8.9h-3.2v-7.9c0-2.2-1-3.4-2.8-3.4c-1.7,0-3,1.2-3,3.4v7.8
						h-3.2v-7.9c0-2.2-1.1-3.4-2.8-3.4c-1.8,0-3,1.3-3,3.5v7.8h-3.2V5.3h3.2v2.1C96.8,6.2,98,5,100.1,5c2,0,3.4,1,4.1,2.4
						C105.4,6,106.8,5,108.9,5"/>
					<path id="Fill-16" class="st0" d="M127.2,11.3c-0.2-2-1.4-3.7-3.5-3.7c-1.9,0-3.3,1.5-3.6,3.7H127.2z M124.1,16.9
						c1.6,0,2.7-0.6,3.8-1.7l1.9,1.7c-1.3,1.6-3.1,2.6-5.7,2.6c-4,0-7.1-2.9-7.1-7.2c0-4,2.8-7.3,6.8-7.3c4.4,0,6.7,3.5,6.7,7.5
						c0,0.3,0,0.6-0.1,0.9h-10.2C120.5,15.6,122,16.9,124.1,16.9L124.1,16.9z"/>
					<polygon id="Fill-17" class="st0" points="89.9,32.6 89.9,26.6 87.3,30.5 87.2,30.5 84.7,26.6 84.7,32.6 82.7,32.6 82.7,23.4 
						84.9,23.4 87.3,27.3 89.7,23.4 91.9,23.4 91.9,32.6 					"/>
					<polygon id="Fill-18" class="st0" points="95.1,32.6 95.1,23.4 102.1,23.4 102.1,25.2 97.2,25.2 97.2,27.1 101.5,27.1 
						101.5,28.9 97.2,28.9 97.2,30.8 102.1,30.8 102.1,32.6 					"/>
					<path id="Fill-19" class="st0" d="M111.6,28c0-1.6-1.1-2.8-2.8-2.8h-1.6v5.5h1.6C110.5,30.8,111.6,29.7,111.6,28L111.6,28z
						 M108.8,32.6h-3.6v-9.2h3.6c2.9,0,4.9,2,4.9,4.6v0C113.7,30.6,111.7,32.6,108.8,32.6L108.8,32.6z"/>
					<polygon id="Fill-20" class="st0" points="116.4,32.6 118.4,32.6 118.4,23.4 116.4,23.4 					"/>
					<path id="Fill-21" class="st0" d="M125.5,25.8l-1.2,3h2.4L125.5,25.8z M128.3,32.6l-0.8-2.1h-3.9l-0.8,2.1h-2.1l3.9-9.2h1.9
						l3.9,9.2H128.3z"/>
					<polygon id="Fill-22" class="st0" points="132.7,5.9 131.7,5.9 131.7,5.3 134.3,5.3 134.3,5.9 133.4,5.9 133.4,8.4 132.7,8.4 
											"/>
					<polygon id="Fill-23" class="st0" points="134.8,5.3 135.6,5.3 136.4,6.6 137.2,5.3 138,5.3 138,8.4 137.3,8.4 137.3,6.4 
						136.4,7.7 136.4,7.7 135.5,6.4 135.5,8.4 134.8,8.4 					"/>
				</g>
			</g>
			<g id="B-logo" transform="translate(157.000000, 4.000000)">
				<g id="Group-2">
					<path id="Combined-Shape" class="st0" d="M24,54C10.7,54,0,43.3,0,30S10.7,6,24,6s24,10.7,24,24S37.3,54,24,54z M24,46
						c8.8,0,16-7.2,16-16s-7.2-16-16-16S8,21.2,8,30S15.2,46,24,46z"/>
					<path id="Rectangle-11" class="st0" d="M17,22h5c0.6,0,1,0.4,1,1v15c0,0.6-0.4,1-1,1h-5c-0.6,0-1-0.4-1-1V23
						C16,22.4,16.4,22,17,22z"/>
					<path id="Rectangle-11_00000051355556052120138240000006202132490181004442_" class="st0" d="M1,0h5c0.6,0,1,0.4,1,1v30
						c0,0.6-0.4,1-1,1H1c-0.6,0-1-0.4-1-1V1C0,0.4,0.4,0,1,0z"/>
					<path id="Rectangle-11-Copy" class="st0" d="M27,22h5c0.6,0,1,0.4,1,1v15c0,0.6-0.4,1-1,1h-5c-0.6,0-1-0.4-1-1V23
						C26,22.4,26.4,22,27,22z"/>
				</g>
			</g>
		</g>
	</g>
</g>
</svg>
